X: 1
T: Frenchie's Reel   [Bb]
O: Trad
Z: 1999 John Chambers <jc:trillian.mit.edu>
M: C|
L: 1/8
K: Bb
FE \
| "Bb"DFBc d2FE | DFBc d2cB | "F7"AFcF eFcF |1,3 AFcF e2 :|2,4 "Bb"BABc B2 :|
|: FE \
| "Bb"~D2BD FBDF | BDFB- BDFB | "Eb"~E2BE GBEG | "(Cm)"BEGB- BEGB |
| "F7"~F2cF AcFA | eFAd- dFcF | "Bb"BABd "F7"cBAc | "Bb"BABc B2 :|
